X: 11067
T: NATALIE'S WALTZ
C: Bob McQuillen 16 July 94
B: Bob's Note Book 11 #67
R: waltz
Z: 2020 John Chambers <jc:trillian.mit.edu>
M: 3/4
L: 1/4
K: D
[|"D"A2F | A/d2-d/ | "G"B2G | B/d2-d/ | "D"A2B/c/ | "Bm"dAd | "Em"f>gf | "A7"fe2 \
| "D"A2F | "D"A/d2-d/ | "G"B>cd | efg | "D"fd>B |
| "G"AFA | "A7"Bd>c | "D"d3 |\
[|"D"f>gf | fed | "G"B>cd | "D"AFD | "G"G>AB | "Bm"Ad>e | "G6"fa>g | "A7"fe2 \
| "D"f>gf | fed |
| "G"B>cd | "D"Adf | "G"ga>b | "D"afg | "A7"f>de | "D"d3 |\
[|"D"f2d | f/a2-a/ | "A"e2d | "F#m"e/f2-f/ | "Bm"d>Bc | dfd | "G6"ec>A |
| "A7"GFE \
| "D"D2F | A/d2-d/ | "A7"c>de | "D"f/d2-d/ | "G"g>ab | "D"afd | "A7"ed>e | "D"d3 |\
]|"A"e>fe | "F#m"ecA | "Bm"f>gf |
| fdB | "G"g>fg | "A7"efg | "D"a>ba | f3 \
| "G"g>ab | "D"af2 | "G"d>cd | "D"BA2 | "G"a>ba | "D"agf | "A7"edc | "D"d3 |]
%%begintext align
%% From Cape Breton Island,
%% Natalie MacMaster's wonderful fiddling, dancing, and general vivacity
%% brings us all tons of joy. Thanks so much, Nataie - we sure do
%% appreciate your great performances!
%%endtext

%%sep 1 1 500

%%sep 1 1 500

